other/dark.svg

<svg width="48" height="48" version="1.1" viewBox="0 0 48 48" xmlns="http://www.w3.org/2000/svg">
 <path d="m40.922 37.875h-2.6703l-1.3352-2.3125 1.3352-2.3125h2.6703l1.3352 2.3125zm0-4.625h-2.6703l-1.3352-2.3125 1.3352-2.3125h2.6703l1.3352 2.3125zm0-4.625h-2.6703l-1.3352-2.3125 1.3352-2.3125h2.6703l1.3352 2.3125zm0-4.625h-2.6703l-1.3352-2.3125 1.3352-2.3125h2.6703l1.3352 2.3125zm0-4.625h-2.6703l-1.3352-2.3125 1.3352-2.3125h2.6703l1.3352 2.3125zm0-4.625h-2.6703l-1.3352-2.3125 1.3352-2.3125 2.6703 1e-6 1.3352 2.3125zm0-4.625-2.6703-1e-6 -1.3352-2.3125 1.3352-2.3125 2.6703 1e-7 1.3352 2.3125zm-4.0055 2.3125h-5.0506c-0.5089-1.1099-1.8943-2.2199-0.74778-3.3298 0.40223-0.41341 0.4415-1.4555 1.175-1.2952h4.6234l1.3352 2.3125zm0 4.625h-5.0506l-1.3352-2.3125 1.3352-2.3125h5.0506l1.3352 2.3125zm-4.6234 0h4.6234l1.3352 2.3125-1.3352 2.3125m-4.6234 0h4.6234l1.3352 2.3125-1.3352 2.3125h-5.0506m0.42719 0h4.6234l1.3352 2.3125-1.3352 2.3125h-5.0506m0.42719-2e-6h4.6234l1.3352 2.3125-1.3352 2.3125h-5.0506m0.42719-2e-6h4.6234l1.3352 2.3125-1.3352 2.3125h-5.0506m-1.3352 2.3125h-2.6703l-1.3352-2.3125 1.3352-2.3125h2.6703l1.3352 2.3125zm0-4.625h-2.6703l-1.3352-2.3125 1.3352-2.3125h2.6703l1.3352 2.3125zm0-4.625h-2.6703l-1.3352-2.3125 1.3352-2.3125h2.6703l1.3352 2.3125zm0-4.625h-2.6703l-1.3352-2.3125 1.3352-2.3125h2.6703l1.3352 2.3125c-0.44506 0.77083-0.89011 1.5417-1.3352 2.3125zm0-4.625h-2.6703l-1.3352-2.3125 1.3352-2.3125h2.6703l1.3352 2.3125zm0-4.625h-2.6703l-1.3352-2.3125 1.3352-2.3125h2.6703l1.3352 2.3125zm0-4.625h-2.6703l-1.3352-2.3125 1.3352-2.3125 2.6703 1e-6 1.3352 2.3125zm0-4.625-2.6703-1e-6 -1.3352-2.3125 1.3352-2.3125 2.6703 1e-7 1.3352 2.3125zm-4.0055 2.3125h-5.0506l-1.3352-2.3125 1.3352-2.3125h5.0506l1.3352 2.3125zm0 4.625h-5.0506l-1.3352-2.3125 1.3352-2.3125h5.0506l1.3352 2.3125zm-6.3857 6.9375 1.3352-2.3125h5.0506l1.3352 2.3125-1.3352 2.3125h-5.0506m0 0h5.0506l1.3352 2.3125-1.3352 2.3125h-5.0506m0-2e-6h5.0506l1.3352 2.3125-1.3352 2.3125h-5.0506m5.0506 4.625h-5.0506l-1.3352-2.3125 1.3352-2.3125h5.0506l1.3352 2.3125zm-6.3857-2.3125 1.3352 2.3125-1.3352 2.3125h-2.6703l-1.3352-2.3125 1.3352-2.3125m2.6703-4.625 1.3352 2.3125m-1.3352 2.3125h-2.6703l-1.3352-2.3125 1.3352-2.3125m0-4.625h2.6703m0 0 1.3352 2.3125-1.3352 2.3125h-2.6703l-1.3352-2.3125 1.3352-2.3125m2.6703-4.625 1.3352 2.3125-1.3352 2.3125m-2.6703 0-1.3352-2.3125 1.3352-2.3125m2.6703-4.625 1.3352 2.3125m-1.3352 2.3125h-2.6703l-1.3352-2.3125 1.3352-2.3125m2.6703 0h-2.6703l-1.3352-2.3125 1.3352-2.3125h2.6703l1.3352 2.3125zm-2.6703-4.625-1.3352-2.3125 1.3352-2.3125 2.6703 1e-6 1.3352 2.3125-1.3352 2.3125m-2.6703-4.625-1.3352-2.3125 1.3352-2.3125 2.6703 1e-7 1.3352 2.3125-1.3352 2.3125m-9.0561 2.3125-1.3352-2.3125 1.3352-2.3125h5.0506l1.3352 2.3125-1.3352 2.3125m-5.0506 4.625-1.3352-2.3125 1.3352-2.3125h5.0506l1.3352 2.3125-1.3352 2.3125m-6.3857 2.3125 1.3352-2.3125h5.0506l1.3352 2.3125-1.3352 2.3125m-5.0506 4.625-1.3352-2.3125 1.3352-2.3125h5.0506l1.3352 2.3125-1.3352 2.3125m-5.0506 0h5.0506l1.3352 2.3125-1.3352 2.3125h-5.0506m5.0506-2e-6 1.3352 2.3125-1.3352 2.3125h-5.0506l-1.3352-2.3125m6.3857 2.3125 1.3352 2.3125-1.3352 2.3125h-5.0506l-1.3352-2.3125m1.3352 2.3125-1.3352 2.3125h-2.6703l-1.3352-2.3125 1.3352-2.3125m2.6703-4.625 1.3352 2.3125-1.3352 2.3125h-2.6703l-1.3352-2.3125 1.3352-2.3125m2.6703 0h-2.6703l-1.3352-2.3125 1.3352-2.3125h2.6703l1.3352 2.3125zm1.3352-6.9375-1.3352 2.3125h-2.6703l-1.3352-2.3125 1.3352-2.3125h2.6703m-2.6703 0-1.3352-2.3125 1.3352-2.3125h2.6703l1.3352 2.3125m-4.0055-2.3125-1.3352-2.3125 1.3352-2.3125h2.6703m-2e-7 0h-2.6703l-1.3352-2.3125 1.3352-2.3125 2.6703 1e-6m-2e-7 0-2.6703-1e-6 -1.3352-2.3125 1.3352-2.3125 2.6703 1e-7 1.3352 2.3125m31.174 32.375-1.3352 2.3125h-2.6703l-1.3352-2.3125 1.3352-2.3125h2.6703z" fill="none" stop-color="#000000" stroke="#fff" stroke-linecap="round" stroke-linejoin="round" style="paint-order:stroke fill markers"/>
</svg>

<svg xmlns="http://www.w3.org/2000/svg" viewBox="0 0 48 48"><defs><style>.a{fill:none;stroke:#fff;stroke-linecap:round;stroke-linejoin:round;}</style></defs><path class="a" d="M40.9219,37.875h-2.67l-1.3352-2.3125L38.2516,33.25h2.67l1.3352,2.3125Zm0-4.625h-2.67l-1.3352-2.3125,1.3352-2.3125h2.67l1.3352,2.3125Zm0-4.625h-2.67l-1.3352-2.3125L38.2516,24h2.67l1.3352,2.3125Zm0-4.625h-2.67l-1.3352-2.3125,1.3352-2.3125h2.67l1.3352,2.3125Zm0-4.625h-2.67l-1.3352-2.3125L38.2516,14.75h2.67l1.3352,2.3125Zm0-4.625h-2.67l-1.3352-2.3125,1.3352-2.3125h2.67l1.3352,2.3125Zm0-4.625h-2.67L36.9164,7.8125,38.2516,5.5h2.67l1.3352,2.3125Zm-4.0055,2.3125H31.8658c-.5089-1.11-1.8943-2.22-.7478-3.33.4022-.4134.4415-1.4555,1.175-1.2952h4.6234l1.3352,2.3125Zm0,4.625H31.8658L30.5306,14.75l1.3352-2.3125h5.0506L38.2516,14.75Zm-4.6234,0h4.6234l1.3352,2.3125-1.3352,2.3125m-4.6234,0h4.6234L38.2516,24l-1.3352,2.3125H31.8658m.4272,0h4.6234l1.3352,2.3125-1.3352,2.3125H31.8658m.4272,0h4.6234L38.2516,33.25l-1.3352,2.3125H31.8658m.4271,0h4.6235l1.3352,2.3125-1.3352,2.3125H31.8658M30.5306,42.5H27.86l-1.3352-2.3125L27.86,37.875h2.67l1.3352,2.3125Zm0-4.625H27.86l-1.3352-2.3125L27.86,33.25h2.67l1.3352,2.3125Zm0-4.625H27.86l-1.3352-2.3125L27.86,28.625h2.67l1.3352,2.3125Zm0-4.625H27.86l-1.3352-2.3125L27.86,24h2.67l1.3352,2.3125Zm0-4.625H27.86l-1.3352-2.3125L27.86,19.375h2.67l1.3352,2.3125Zm0-4.625H27.86l-1.3352-2.3125L27.86,14.75h2.67l1.3352,2.3125Zm0-4.625H27.86l-1.3352-2.3125L27.86,10.125h2.67l1.3352,2.3125Zm0-4.625H27.86L26.5251,7.8125,27.86,5.5h2.67l1.3352,2.3125Zm-4.0055,2.3125H21.4745L20.1393,10.125l1.3352-2.3125h5.0506L27.86,10.125Zm0,4.625H21.4745L20.1393,14.75l1.3352-2.3125h5.0506L27.86,14.75ZM20.1394,24l1.3352-2.3125h5.0506L27.86,24l-1.3351,2.3125H21.4746m0,0h5.0506L27.86,28.625l-1.3351,2.3125H21.4746m0,0h5.0506L27.86,33.25l-1.3351,2.3125H21.4746m5.0506,4.625H21.4746L20.1394,37.875l1.3352-2.3125h5.0506L27.86,37.875ZM20.14,37.875l1.3351,2.3125L20.14,42.5h-2.67L16.134,40.1875l1.3352-2.3125m2.67-4.625,1.3351,2.3125M20.14,37.875h-2.67L16.134,35.5625,17.4692,33.25m0-4.625h2.67m0,0,1.3351,2.3125L20.14,33.25h-2.67L16.134,30.9375l1.3352-2.3125M20.14,24l1.3351,2.3125L20.14,28.625m-2.67,0L16.134,26.3125,17.4692,24m2.67-4.625,1.3351,2.3125M20.14,24h-2.67L16.134,21.6875l1.3352-2.3125m2.67,0h-2.67L16.134,17.0625,17.4692,14.75h2.67l1.3351,2.3125Zm-2.67-4.625L16.134,12.4375l1.3352-2.3125h2.67l1.3351,2.3125L20.14,14.75m-2.67-4.625L16.134,7.8125,17.4692,5.5h2.67l1.3351,2.3125L20.14,10.125m-9.0561,2.3125L9.7481,10.125l1.3353-2.3125h5.0505l1.3352,2.3125-1.3352,2.3125m-5.0506,4.625L9.7481,14.75l1.3352-2.3125h5.0506L17.4691,14.75l-1.3352,2.3125M9.7482,19.375l1.3352-2.3125H16.134l1.3352,2.3125L16.134,21.6875m-5.0506,4.625L9.7482,24l1.3352-2.3125H16.134L17.4692,24,16.134,26.3125m-5.0506,0H16.134l1.3352,2.3125L16.134,30.9375H11.0834m5.0506,0L17.4692,33.25,16.134,35.5625H11.0834L9.7482,33.25m6.3857,2.3125,1.3352,2.3125-1.3352,2.3125H11.0833L9.7481,37.875m1.3352,2.3125L9.7481,42.5h-2.67L5.7426,40.1875,7.0778,37.875m2.67-4.625,1.3352,2.3125L9.7481,37.875h-2.67L5.7426,35.5625,7.0778,33.25m2.67,0h-2.67L5.7426,30.9375,7.0778,28.625h2.67l1.3352,2.3125Zm1.3352-6.9375L9.7481,28.625h-2.67L5.7426,26.3125,7.0778,24h2.67m-2.67,0L5.7426,21.6875,7.0778,19.375h2.67l1.3352,2.3125M7.0778,19.375,5.7426,17.0625,7.0778,14.75h2.67m0,0h-2.67L5.7427,12.4375,7.0778,10.125h2.67m0,0h-2.67L5.7427,7.8125,7.0778,5.5h2.67l1.3353,2.3125m31.174,32.375L40.9221,42.5h-2.67l-1.3353-2.3125,1.3353-2.3125h2.67Z"/></svg>
